X:1
T:James Gibb editions
T:Psalm 78 (Becker) - Schütz
%%score [ ( 1 2 ) ( 3 4 ) ]
L:1/8
Q:1/4=100
M:2/2
K:Eb
V:1 treble nm="Soprano Alto"
V:2 treble 
V:3 bass nm="Tenor Bass"
V:4 bass 
V:1
"^Cornelius Becker\n(1561-1604)""^Psalm 78, SWV 175""^Heinrich Schütz\n(1585-1672)" e4 e2 e2 | %1
w: ~Hör, mein *|
 f2 e2 d2 c2 | B4 e4 | B2 c2 G2 B2 | A2 G2 F4 |[M:2/2] E4 G2 A2 | B2 B2 A4 | G4 e4 | B2 d2 e2 d2 | %9
w: mein Ge- setz und|Weis, dein|Oh- ren neig und|merk mit Fleiß,|was mein Mund|sagt in Sprü-|chen, ich|will zu sin- gen|
 c2 =B2 c4 |[M:2/2] G4 c2 e2 | d2 c2 f2 e2 | d4 B4 | c2 c2 _d2 B2 | (BA/G/ F2) E8 |] %15
w: he- ben an|und sa- gen,|was ich weiß und|kann von|ur- al- ten Ge-|schich\- * * * ten.|
V:2
 G4 G2 G2 | F2 G2 F2 F2 | D4 G4 | G2 E2 E2 E2 | C2 E2 D4 |[M:2/2] B,4 E2 E2 | G2 G2 F4 | B,4 B,4 | %8
 E2 F2 G2 D2 | G2 G2 G4 |[M:2/2] E4 G2 G2 | B2 E2 A2 G2 | B4 G4 | E2 E2 F2 E2 | (D E2 D) E8 |] %15
V:3
 B,4 B,2 C2 | D3 C2 B,2 =A, | B,4 G,4 | G,2 A,2 B,2 G,2 | A,2 B,2 B,4 |[M:2/2] G,4 B,2 C2 | %6
 D2 E4 D2 | E4 G4 | G2 F2 E2 G2 | E2 D2 C4 | %10
[M:2/2]"^2. Was uns die Väter haben g'sagt, soll auf die Kinder werden bracht\nund die so nach uns kommen, damit des Herren Ehr und Ruhm,\nsein Wundermacht und herrlichs Tun auch von ihn'n werd vernommen.\n\n3. Er richt in Jakob auf den Bund, gab das Gesetz und machte kund,\nwas man soll allzeit lehren, auf das mans wüßt zu Kindeskind,\nall die gewesen und noch sind, auch künftig g'boren werden." C4 E2 C2 | %11
 G2 C2 C2 E2 | F4 E4 | C2 A,2 A,2 G,2 | (F,G,/A,/ B,2) B,8 |] %15
V:4
 E,4 E,2 E,2 | B,2 E,2 B,,2 F,2 | B,,4 C,4 | E,2 A,,2 E,2 E,2 | F,2 E,2 B,,4 |[M:2/2] E,4 E,2 A,2 | %6
 G,2 E,2 F,4 | E,4 E,4 | E,2 D,2 C,2 =B,,2 | C,2 G,2 C,4 |[M:2/2] C,4 C2 C2 | G,2 A,2 F,2 C2 | %12
 B,4 E,4 | A,2 A,2 _D,2 E,2 | B,,4 E,8 |] %15

